resources/phone.svg

<svg xmlns="http://www.w3.org/2000/svg" width="24" height="24" fill="#f4f4f7" viewBox="0 0 24 24"><path stroke="#555e70" stroke-linecap="round" stroke-linejoin="round" stroke-width="2" d="M3 5C3 3.89543 3.89543 3 5 3H8.27924C8.70967 3 9.09181 3.27543 9.22792 3.68377L10.7257 8.17721C10.8831 8.64932 10.6694 9.16531 10.2243 9.38787L7.96701 10.5165C9.06925 12.9612 11.0388 14.9308 13.4835 16.033L14.6121 13.7757C14.8347 13.3306 15.3507 13.1169 15.8228 13.2743L20.3162 14.7721C20.7246 14.9082 21 15.2903 21 15.7208V19C21 20.1046 20.1046 21 19 21H18C9.71573 21 3 14.2843 3 6V5Z"/></svg>

<svg width="24" height="24" fill="#f4f4f7">
  <path stroke="#555e70" stroke-linecap="round" stroke-linejoin="round" stroke-width="2" d="M3 5a2 2 0 0 1 2-2h3.28a1 1 0 0 1 .948.684l1.498 4.493a1 1 0 0 1-.502 1.21l-2.257 1.13a11.042 11.042 0 0 0 5.516 5.516l1.13-2.257a1 1 0 0 1 1.21-.502l4.493 1.498a1 1 0 0 1 .684.949V19a2 2 0 0 1-2 2h-1C9.716 21 3 14.284 3 6V5Z"/>
</svg>
